public/avatar/body/66.svg

<svg xmlns:xlink="http://www.w3.org/1999/xlink" height="82" width="84.85" xmlns="http://www.w3.org/2000/svg"><g transform="translate(37.4 42.25)"><use height="15.95" transform="translate(-16.8 -2.95)" width="42.15" xlink:href="#a"/><use height="11.2" transform="translate(-16.3 .25)" width="41.5" xlink:href="#b"/><use height="16.95" transform="translate(-17.3 -3.45)" width="43.15" xlink:href="#c"/><use height="4.9" transform="translate(-17.3 -.25)" width="42.6" xlink:href="#d"/><use height="38" transform="translate(-11.95 -17.45)" width="32.05" xlink:href="#e"/><use height="21.6" transform="translate(-12.25 -17.95)" width="32.65" xlink:href="#f"/><use height="21.85" transform="translate(-13.75 .55)" width="34.75" xlink:href="#g"/><use height="7.75" transform="translate(-12.95 14.65)" width="32.95" xlink:href="#h"/><use height="21.35" transform="translate(-12.3 .55)" width="32.85" xlink:href="#i"/><use height="22.45" transform="translate(-13.8 .45)" width="35.4" xlink:href="#j"/><use height="41.8" transform="translate(10.3 -20.6)" width="11" xlink:href="#k"/><use height="2.25" transform="translate(2.25 10.3)" width="3.95" xlink:href="#l"/><use height="2.6" transform="translate(3.05 11.15)" width="2.25" xlink:href="#m"/></g><defs><use height="15.95" width="42.15" xlink:href="#n" id="a"/><use height="11.2" width="41.5" xlink:href="#o" id="b"/><use height="16.95" width="43.15" xlink:href="#p" id="c"/><use height="4.9" width="42.6" xlink:href="#q" id="d"/><use height="38" width="32.05" xlink:href="#r" id="e"/><use height="21.6" width="32.65" xlink:href="#s" id="f"/><use height="21.85" width="34.75" xlink:href="#t" id="g"/><use height="7.75" width="32.95" xlink:href="#u" id="h"/><use height="21.35" width="32.85" xlink:href="#v" id="i"/><use height="22.45" width="35.4" xlink:href="#w" id="j"/><use height="6.3" transform="translate(.3 5.8) scale(.0049)" width="6.1" xlink:href="#x" id="B"/><use height="9.65" transform="translate(.4 8.55) scale(.0078)" width="11" xlink:href="#y" id="C"/><use height="2.25" width="3.95" xlink:href="#z" id="l"/><use height="2.6" width="2.25" xlink:href="#A" id="m"/><path d="M20.95 0q20.95 0 21.2 3.8.2 2.8-5.05 6.9-6.65 5.25-16.25 5.25-9.55 0-15.9-4.75Q.15 7.55 0 4.8q-.1-1.7 5.9-3.2Q12.35 0 20.95 0" fill="red" fill-rule="evenodd" id="n"/><path d="M38.5 5.65q-3.5 4.65-15.8 5.4-12.35.75-17.35-2.65Q.35 5 0 2.1l2.95.9 2.95.35 13.8.5 15.65-1.5 2.7-.75L41.4 0q.6.95-2.9 5.65" fill-rule="evenodd" id="o"/><path d="M20.95 0q20.95 0 21.2 3.8.2 2.8-5.05 6.9-6.65 5.25-16.25 5.25-9.55 0-15.9-4.75Q.15 7.55 0 4.8q-.1-1.7 5.9-3.2Q12.35 0 20.95 0Z" fill="none" stroke="#000" stroke-linecap="round" stroke-linejoin="round" transform="translate(.5 .5)" id="p"/><path d="M0 1.6q1.2 1.25 9.2 1.75 12.95.8 17.15.4Q41.45 2.25 41.6 0" fill="none" stroke="#000" stroke-linecap="round" stroke-linejoin="round" transform="translate(.5 .5)" id="q"/><path d="M27.35 7.4q2.15 4.15 3.55 8.75 1.45 4.7 1.15 9.5-.35 4.95-4.2 8.1-3.8 3.2-8.75 4.05l-2.6.2q-3.6 0-7.05-1.15-4.65-1.6-7.1-5.5Q-.2 27.4.05 23q.2-4.4 2-9.3Q3.85 8.75 7 5.05 10.1 1.3 14.7.1l1.8-.1q1.9.05 3.7.8 4.75 2.05 7.15 6.6" fill="#fff" fill-rule="evenodd" transform="translate(-.05)" id="r"/><path d="M31.9 20.6q-.3-2.25-1-4.45-1.4-4.6-3.55-8.75-2.4-4.55-7.15-6.6-2.65-1.1-5.5-.7Q10.1 1.3 7 5.05q-3.15 3.7-4.95 8.65Q.7 17.3.25 20.6" fill="none" stroke="#000" stroke-linecap="round" stroke-linejoin="round" transform="translate(.25 .5)" id="s"/><path d="M26.1 7.5q7.45-1.85 7.35-7.1 3.1 11.3-1.15 16.55-3.95 4.9-14.2 4.9-6.2 0-11.05-2.25Q2.3 17.45.8 14.1-1.35 9.15 2.35 0 2 1.55 3.4 4.3 4.75 7 9.05 7.8q4.25.75 7 3.55l2.4 2.75 2.4-3.85q1.3-1.15 5.4-2.75h-.15" fill="red" fill-rule="evenodd" id="t"/><path d="M2 0Q-.55 5.35.15 10.75q1.4 10.7 17.5 10.7 14.45 0 16.45-10.5.95-5.25-.95-10.5" fill="none" stroke="#000" stroke-linecap="round" stroke-linejoin="round" transform="translate(.5 .5)" id="w"/><path d="M592.5-678H39l-8 159h19q3.5-46 22-73t44.5-36.5q20-7 67.5-7h81.5v518q0 57-11 73-18 26-61 26h-24V0H457v-18.5h-23.5q-39.5 0-58.5-21-13.5-15.5-13.5-78v-518H457q42 0 68 14 25.5 13.5 41 42.5 9.5 18 15 60h19l-7.5-159" fill-rule="evenodd" id="x"/><path d="M.5-705q-10 14.5-12 30-1.5 16-2.5 24.5-1 9-1 15 0 49 24.5 67.5 25 19 82 19l70 2v498.5Q161.5-32 174-19q13 12.5 33 19 20 6 31.5 8 12 2 28 2 87.5 0 111-9.5 23.5-10 35.5-24 12.5-13.5 12.5-28V-549h129q31.5 0 52-22.5T627-635q1-4 1-12.5 0-12-1-17.5-1-5-10.5-38.5-10-34-46.5-34H41.5q-7 0-19 8.5-12 9-22 24" fill-rule="evenodd" id="y"/><path d="M0 1.25.05.1 2.8 0l.15 1.25" fill="none" stroke="#000" stroke-linecap="round" stroke-linejoin="round" transform="translate(.5 .5)" id="z"/><path d="M2.25 0v2.6L0 2.5V0h2.25" fill="red" fill-rule="evenodd" id="A"/><g id="u" fill="#b50000" fill-rule="evenodd"><path d="M0 0q7.5 4.5 17.4 4.5 9.85 0 15.55-4.3-.6 1.7-1.45 2.65-3.95 4.9-14.2 4.9-6.2 0-11.05-2.25Q1.5 3.35 0 0"/><path d="M25.5 4.1Q19.9 6 16 6q-3.85 0-7.35-2.25l.25.15q2 .6 4-.05l2.3-1.25q1.15-.85 1.95-.85.75 0 2.1.9 1.45 1 2.5 1.2l3.75.25"/></g><g id="v" fill="#3b0000" fill-rule="evenodd"><path d="M13.55 9.7q2.15 1.7 2.75 1.7h.15v9.95l-1.55-.1q.1-3.8-.4-5.6-.35-1.5-2.4-3.2Q9.8 10.6 7.05 10q-4.4-.9-6.1-3.9Q0 4.25 0 3.1L.85 0q1.5 6.1 6.9 7.15 3.45.7 5.8 2.55"/><path d="m31.95 0 .9 3.1q0 1.2-.95 3-1.65 3-6.1 3.95-2.75.55-5.05 2.45-2.05 1.65-2.45 3.15-.45 1.8-.35 5.65l-1.55.05V11.4l.15.05q.6-.05 2.7-1.75 2.35-1.85 5.8-2.5 5.45-1.05 6.9-7.2"/></g><g id="k" transform="translate(-.95 33.05)"><use height="6.3" transform="translate(2.25 -33.05)" width="6.1" xlink:href="#B"/><use height="9.65" transform="translate(.95 -.9)" width="11" xlink:href="#C"/></g></defs></svg>

<?xml version="1.0" encoding="UTF-8" standalone="no"?>
<svg xmlns:xlink="http://www.w3.org/1999/xlink" height="82.0px" width="84.85px" xmlns="http://www.w3.org/2000/svg">
  <g transform="matrix(1.0, 0.0, 0.0, 1.0, 37.4, 42.25)">
    <use height="15.95" transform="matrix(1.0, 0.0, 0.0, 1.0, -16.8, -2.95)" width="42.15" xlink:href="#sprite0"/>
    <use height="11.2" transform="matrix(1.0, 0.0, 0.0, 1.0, -16.3, 0.25)" width="41.5" xlink:href="#sprite1"/>
    <use height="16.95" transform="matrix(1.0, 0.0, 0.0, 1.0, -17.3, -3.45)" width="43.15" xlink:href="#sprite2"/>
    <use height="4.9" transform="matrix(1.0, 0.0, 0.0, 1.0, -17.3, -0.25)" width="42.6" xlink:href="#sprite3"/>
    <use height="38.0" transform="matrix(1.0, 0.0, 0.0, 1.0, -11.95, -17.45)" width="32.05" xlink:href="#sprite4"/>
    <use height="21.6" transform="matrix(1.0, 0.0, 0.0, 1.0, -12.25, -17.95)" width="32.65" xlink:href="#sprite5"/>
    <use height="21.85" transform="matrix(1.0, 0.0, 0.0, 1.0, -13.75, 0.55)" width="34.75" xlink:href="#sprite6"/>
    <use height="7.75" transform="matrix(1.0, 0.0, 0.0, 1.0, -12.95, 14.65)" width="32.95" xlink:href="#sprite7"/>
    <use height="21.35" transform="matrix(1.0, 0.0, 0.0, 1.0, -12.3, 0.55)" width="32.85" xlink:href="#sprite8"/>
    <use height="22.45" transform="matrix(1.0, 0.0, 0.0, 1.0, -13.8, 0.45)" width="35.4" xlink:href="#sprite9"/>
    <use height="41.8" transform="matrix(1.0, 0.0, 0.0, 1.0, 10.3, -20.6)" width="11.0" xlink:href="#sprite10"/>
    <use height="2.25" transform="matrix(1.0, 0.0, 0.0, 1.0, 2.25, 10.3)" width="3.95" xlink:href="#sprite11"/>
    <use height="2.6" transform="matrix(1.0, 0.0, 0.0, 1.0, 3.05, 11.15)" width="2.25" xlink:href="#sprite12"/>
  </g>
  <defs>
    <g id="sprite0" transform="matrix(1.0, 0.0, 0.0, 1.0, 0.0, 0.0)">
      <use height="15.95" transform="matrix(1.0, 0.0, 0.0, 1.0, 0.0, 0.0)" width="42.15" xlink:href="#shape0"/>
    </g>
    <g id="shape0" transform="matrix(1.0, 0.0, 0.0, 1.0, 0.0, 0.0)">
      <path d="M20.95 0.0 Q41.9 0.0 42.15 3.8 42.35 6.6 37.1 10.7 30.45 15.95 20.85 15.95 11.3 15.95 4.95 11.2 0.15 7.55 0.0 4.8 -0.1 3.1 5.9 1.6 12.35 0.0 20.95 0.0" fill="#ff0000" fill-rule="evenodd" stroke="none"/>
    </g>
    <g id="sprite1" transform="matrix(1.0, 0.0, 0.0, 1.0, 0.0, 0.0)">
      <use height="11.2" transform="matrix(1.0, 0.0, 0.0, 1.0, 0.0, 0.0)" width="41.5" xlink:href="#shape1"/>
    </g>
    <g id="shape1" transform="matrix(1.0, 0.0, 0.0, 1.0, 0.0, 0.0)">
      <path d="M38.5 5.65 Q35.0 10.3 22.7 11.05 10.35 11.8 5.35 8.4 0.35 5.0 0.0 2.1 L2.95 3.0 5.9 3.35 19.7 3.85 35.35 2.35 38.05 1.6 41.4 0.0 Q42.0 0.95 38.5 5.65" fill="#000000" fill-rule="evenodd" stroke="none"/>
    </g>
    <g id="sprite2" transform="matrix(1.0, 0.0, 0.0, 1.0, 0.5, 0.5)">
      <use height="16.95" transform="matrix(1.0, 0.0, 0.0, 1.0, -0.5, -0.5)" width="43.15" xlink:href="#shape2"/>
    </g>
    <g id="shape2" transform="matrix(1.0, 0.0, 0.0, 1.0, 0.5, 0.5)">
      <path d="M20.95 0.0 Q41.9 0.0 42.15 3.8 42.35 6.6 37.1 10.7 30.45 15.95 20.85 15.95 11.3 15.95 4.95 11.2 0.15 7.55 0.0 4.8 -0.1 3.1 5.9 1.6 12.35 0.0 20.95 0.0 Z" fill="none" stroke="#000000" stroke-linecap="round" stroke-linejoin="round" stroke-width="1.0"/>
    </g>
    <g id="sprite3" transform="matrix(1.0, 0.0, 0.0, 1.0, 0.5, 0.5)">
      <use height="4.9" transform="matrix(1.0, 0.0, 0.0, 1.0, -0.5, -0.5)" width="42.6" xlink:href="#shape3"/>
    </g>
    <g id="shape3" transform="matrix(1.0, 0.0, 0.0, 1.0, 0.5, 0.5)">
      <path d="M0.0 1.6 Q1.2 2.85 9.2 3.35 22.15 4.15 26.35 3.75 41.45 2.25 41.6 0.0" fill="none" stroke="#000000" stroke-linecap="round" stroke-linejoin="round" stroke-width="1.0"/>
    </g>
    <g id="sprite4" transform="matrix(1.0, 0.0, 0.0, 1.0, -0.05, 0.0)">
      <use height="38.0" transform="matrix(1.0, 0.0, 0.0, 1.0, 0.05, 0.0)" width="32.05" xlink:href="#shape4"/>
    </g>
    <g id="shape4" transform="matrix(1.0, 0.0, 0.0, 1.0, -0.05, 0.0)">
      <path d="M27.35 7.4 Q29.5 11.55 30.9 16.15 32.35 20.85 32.05 25.65 31.7 30.6 27.85 33.75 24.05 36.95 19.1 37.8 L16.5 38.0 Q12.9 38.0 9.45 36.85 4.8 35.25 2.35 31.35 -0.2 27.4 0.05 23.0 0.25 18.6 2.05 13.7 3.85 8.75 7.0 5.05 10.1 1.3 14.7 0.1 L16.5 0.0 Q18.4 0.05 20.2 0.8 24.95 2.85 27.35 7.4" fill="#ffffff" fill-rule="evenodd" stroke="none"/>
    </g>
    <g id="sprite5" transform="matrix(1.0, 0.0, 0.0, 1.0, 0.25, 0.5)">
      <use height="21.6" transform="matrix(1.0, 0.0, 0.0, 1.0, -0.25, -0.5)" width="32.65" xlink:href="#shape5"/>
    </g>
    <g id="shape5" transform="matrix(1.0, 0.0, 0.0, 1.0, 0.25, 0.5)">
      <path d="M31.9 20.6 Q31.6 18.35 30.9 16.15 29.5 11.55 27.35 7.4 24.95 2.85 20.2 0.8 17.55 -0.3 14.7 0.1 10.1 1.3 7.0 5.05 3.85 8.75 2.05 13.7 0.7 17.3 0.25 20.6" fill="none" stroke="#000000" stroke-linecap="round" stroke-linejoin="round" stroke-width="1.0"/>
    </g>
    <g id="sprite6" transform="matrix(1.0, 0.0, 0.0, 1.0, 0.0, 0.0)">
      <use height="21.85" transform="matrix(1.0, 0.0, 0.0, 1.0, 0.0, 0.0)" width="34.75" xlink:href="#shape6"/>
    </g>
    <g id="shape6" transform="matrix(1.0, 0.0, 0.0, 1.0, 0.0, 0.0)">
      <path d="M26.1 7.5 Q33.55 5.65 33.45 0.4 36.55 11.7 32.3 16.95 28.35 21.85 18.1 21.85 11.9 21.85 7.05 19.6 2.3 17.45 0.8 14.1 -1.35 9.15 2.35 0.0 2.0 1.55 3.4 4.3 4.75 7.0 9.05 7.8 13.3 8.55 16.05 11.35 L18.45 14.1 20.85 10.25 Q22.15 9.1 26.25 7.5 L26.1 7.5" fill="#ff0000" fill-rule="evenodd" stroke="none"/>
    </g>
    <g id="sprite7" transform="matrix(1.0, 0.0, 0.0, 1.0, 0.0, 0.0)">
      <use height="7.75" transform="matrix(1.0, 0.0, 0.0, 1.0, 0.0, 0.0)" width="32.95" xlink:href="#shape7"/>
    </g>
    <g id="shape7" transform="matrix(1.0, 0.0, 0.0, 1.0, 0.0, 0.0)">
      <path d="M0.0 0.0 Q7.5 4.5 17.4 4.5 27.25 4.5 32.95 0.2 32.35 1.9 31.5 2.85 27.55 7.75 17.3 7.75 11.1 7.75 6.25 5.5 1.5 3.35 0.0 0.0" fill="#b50000" fill-rule="evenodd" stroke="none"/>
      <path d="M25.5 4.1 Q19.9 6.0 16.0 6.0 12.15 6.0 8.65 3.75 L8.9 3.9 Q10.9 4.5 12.9 3.85 L15.2 2.6 Q16.35 1.75 17.15 1.75 17.9 1.75 19.25 2.65 20.7 3.65 21.75 3.85 L25.5 4.1" fill="#b50000" fill-rule="evenodd" stroke="none"/>
    </g>
    <g id="sprite8" transform="matrix(1.0, 0.0, 0.0, 1.0, 0.0, 0.0)">
      <use height="21.35" transform="matrix(1.0, 0.0, 0.0, 1.0, 0.0, 0.0)" width="32.85" xlink:href="#shape8"/>
    </g>
    <g id="shape8" transform="matrix(1.0, 0.0, 0.0, 1.0, 0.0, 0.0)">
      <path d="M13.55 9.7 Q15.7 11.4 16.3 11.4 L16.45 11.4 16.45 21.35 14.9 21.25 Q15.0 17.45 14.5 15.65 14.15 14.15 12.1 12.45 9.8 10.6 7.05 10.0 2.65 9.1 0.95 6.1 0.0 4.25 0.0 3.1 L0.85 0.0 Q2.35 6.1 7.75 7.15 11.2 7.85 13.55 9.7" fill="#3b0000" fill-rule="evenodd" stroke="none"/>
      <path d="M31.95 0.0 L32.85 3.1 Q32.85 4.3 31.9 6.1 30.25 9.1 25.8 10.05 23.05 10.6 20.75 12.5 18.7 14.15 18.3 15.65 17.85 17.45 17.95 21.3 L16.4 21.35 16.4 11.4 16.55 11.45 Q17.15 11.4 19.25 9.7 21.6 7.85 25.05 7.2 30.5 6.15 31.95 0.0" fill="#3b0000" fill-rule="evenodd" stroke="none"/>
    </g>
    <g id="sprite9" transform="matrix(1.0, 0.0, 0.0, 1.0, 0.5, 0.5)">
      <use height="22.45" transform="matrix(1.0, 0.0, 0.0, 1.0, -0.5, -0.5)" width="35.4" xlink:href="#shape9"/>
    </g>
    <g id="shape9" transform="matrix(1.0, 0.0, 0.0, 1.0, 0.5, 0.5)">
      <path d="M2.0 0.0 Q-0.55 5.35 0.15 10.75 1.55 21.45 17.65 21.45 32.1 21.45 34.1 10.95 35.05 5.7 33.15 0.45" fill="none" stroke="#000000" stroke-linecap="round" stroke-linejoin="round" stroke-width="1.0"/>
    </g>
    <g id="sprite10" transform="matrix(1.0, 0.0, 0.0, 1.0, -0.95, 33.05)">
      <use height="6.3" transform="matrix(1.0, 0.0, 0.0, 1.0, 2.25, -33.05)" width="6.1" xlink:href="#text0"/>
      <use height="9.65" transform="matrix(1.0, 0.0, 0.0, 1.0, 0.95, -0.9)" width="11.0" xlink:href="#text1"/>
    </g>
    <g id="text0" transform="matrix(1.0, 0.0, 0.0, 1.0, -70.6, 0.8)">
      <g transform="matrix(1.0, 0.0, 0.0, 1.0, 68.9, 0.0)">
        <use fill="#000000" height="6.3" transform="matrix(0.0049, 0.0, 0.0, 0.0049, 2.0, 5.0)" width="6.1" xlink:href="#font_Times_New_Roman_T0"/>
      </g>
    </g>
    <g id="font_Times_New_Roman_T0">
      <path d="M592.5 -678.0 L39.0 -678.0 31.0 -519.0 50.0 -519.0 Q53.5 -565.0 72.0 -592.0 90.5 -619.0 116.5 -628.5 136.5 -635.5 184.0 -635.5 L265.5 -635.5 265.5 -117.5 Q265.5 -60.5 254.5 -44.5 236.5 -18.5 193.5 -18.5 L169.5 -18.5 169.5 0.0 457.0 0.0 457.0 -18.5 433.5 -18.5 Q394.0 -18.5 375.0 -39.5 361.5 -55.0 361.5 -117.5 L361.5 -635.5 457.0 -635.5 Q499.0 -635.5 525.0 -621.5 550.5 -608.0 566.0 -579.0 575.5 -561.0 581.0 -519.0 L600.0 -519.0 592.5 -678.0" fill-rule="evenodd" stroke="none"/>
    </g>
    <g id="text1" transform="matrix(1.0, 0.0, 0.0, 1.0, -69.5, 0.55)">
      <g transform="matrix(1.0, 0.0, 0.0, 1.0, 68.9, 0.0)">
        <use fill="#000000" height="9.65" transform="matrix(0.0078, 0.0, 0.0, 0.0078, 1.0, 8.0)" width="11.0" xlink:href="#font_Jagger_SF_T0"/>
      </g>
    </g>
    <g id="font_Jagger_SF_T0">
      <path d="M0.5 -705.0 L0.5 -705.0 Q-9.5 -690.5 -11.5 -675.0 -13.0 -659.0 -14.0 -650.5 -15.0 -641.5 -15.0 -635.5 -15.0 -586.5 9.5 -568.0 34.5 -549.0 91.5 -549.0 L161.5 -547.0 161.5 -48.5 Q161.5 -32.0 174.0 -19.0 187.0 -6.5 207.0 0.0 227.0 6.0 238.5 8.0 250.5 10.0 266.5 10.0 354.0 10.0 377.5 0.5 401.0 -9.5 413.0 -23.5 425.5 -37.0 425.5 -51.5 L425.5 -549.0 554.5 -549.0 Q586.0 -549.0 606.5 -571.5 627.0 -594.0 627.0 -635.0 628.0 -639.0 628.0 -647.5 628.0 -659.5 627.0 -665.0 626.0 -670.0 616.5 -703.5 606.5 -737.5 570.0 -737.5 L41.5 -737.5 Q34.5 -737.5 22.5 -729.0 10.5 -720.0 0.5 -705.0" fill-rule="evenodd" stroke="none"/>
    </g>
    <g id="sprite11" transform="matrix(1.0, 0.0, 0.0, 1.0, 0.5, 0.5)">
      <use height="2.25" transform="matrix(1.0, 0.0, 0.0, 1.0, -0.5, -0.5)" width="3.95" xlink:href="#shape10"/>
    </g>
    <g id="shape10" transform="matrix(1.0, 0.0, 0.0, 1.0, 0.5, 0.5)">
      <path d="M0.0 1.25 L0.05 0.1 2.8 0.0 2.95 1.25" fill="none" stroke="#000000" stroke-linecap="round" stroke-linejoin="round" stroke-width="1.0"/>
    </g>
    <g id="sprite12" transform="matrix(1.0, 0.0, 0.0, 1.0, 0.0, 0.0)">
      <use height="2.6" transform="matrix(1.0, 0.0, 0.0, 1.0, 0.0, 0.0)" width="2.25" xlink:href="#shape11"/>
    </g>
    <g id="shape11" transform="matrix(1.0, 0.0, 0.0, 1.0, 0.0, 0.0)">
      <path d="M2.25 0.0 L2.25 2.6 0.0 2.5 0.0 0.0 2.25 0.0" fill="#ff0000" fill-rule="evenodd" stroke="none"/>
    </g>
  </defs>
</svg>
